svgs/duotone/user-doctor-hair-long.svg

<svg xmlns="http://www.w3.org/2000/svg" viewBox="0 0 448 512"><!--! Font Awesome Pro 6.4.0 by @fontawesome - https://fontawesome.com License - https://fontawesome.com/license (Commercial License) Copyright 2023 Fonticons, Inc. --><defs><style>.fa-secondary{opacity:.4}</style></defs><path class="fa-primary" d="M176 112H128h0v32c0 53 43 96 96 96s96-43 96-96V128h0V96h-8c-22.8 0-42.8-11.9-54.1-29.8C241 93.7 210.6 112 176 112zm48 160H70.6C58.1 272 48 261.9 48 249.4c0-6 2.4-11.8 6.6-16l3.9-3.9c24-24 37.5-56.6 37.5-90.5V128h0C96 57.3 153.3 0 224 0c70.6 0 127.8 57.1 128 127.6v.8l0 .2V139c0 33.9 13.5 66.5 37.5 90.5l3.9 3.9c4.2 4.2 6.6 10 6.6 16c0 12.5-10.1 22.6-22.6 22.6H224zm64 32.2V362c-27.6 7.1-48 32.2-48 62v40c0 8.8 7.2 16 16 16h16c8.8 0 16-7.2 16-16s-7.2-16-16-16V424c0-17.7 14.3-32 32-32s32 14.3 32 32v24c-8.8 0-16 7.2-16 16s7.2 16 16 16h16c8.8 0 16-7.2 16-16V424c0-29.8-20.4-54.9-48-62V308.8C393.5 326.7 448 393 448 472v8c0 17.7-14.3 32-32 32H32c-17.7 0-32-14.3-32-32v-8c0-79 54.5-145.3 128-163.2v61.5c-23.1 6.9-40 28.3-40 53.7c0 30.9 25.1 56 56 56s56-25.1 56-56c0-25.4-16.9-46.8-40-53.7V304.2c2.7-.1 5.3-.2 8-.2H280c2.7 0 5.3 .1 8 .2zM120 424a24 24 0 1 1 48 0 24 24 0 1 1 -48 0z"/><path class="fa-secondary" d="M257.9 66.2C241 93.7 210.6 112 176 112H128l0 32c0 53 43 96 96 96s96-43 96-96l0-48h-8c-22.8 0-42.8-11.9-54.1-29.8z"/></svg>

<svg xmlns="http://www.w3.org/2000/svg" viewBox="0 0 448 512"><!--! Font Awesome Pro 6.3.0 by @fontawesome - https://fontawesome.com License - https://fontawesome.com/license (Commercial License) Copyright 2023 Fonticons, Inc. --><defs><style>.fa-secondary{opacity:.4}</style></defs><path class="fa-primary" d="M70.63 272C58.13 272 48 261.9 48 249.4C48 243.4 50.38 237.6 54.63 233.4L58.51 229.5C82.51 205.5 96 172.9 96 138.1V128C96 57.31 153.3 0 224 0C294.6 0 351.8 57.1 352 127.6V128.4L352 128.6V138.1C352 172.9 365.5 205.5 389.5 229.5L393.4 233.4C397.6 237.6 400 243.4 400 249.4C400 261.9 389.9 272 377.4 272H70.63zM128 112V160C128 213 170.1 256 224 256C277 256 320 213 320 160L320 96H312C289.2 96 269.2 84.09 257.9 66.16C240.1 93.66 210.6 112 176 112H128zM288 362C260.4 369.1 240 394.2 240 424V464C240 472.8 247.2 480 256 480H272C280.8 480 288 472.8 288 464C288 455.2 280.8 448 272 448V424C272 406.3 286.3 392 304 392C321.7 392 336 406.3 336 424V448C327.2 448 320 455.2 320 464C320 472.8 327.2 480 336 480H352C360.8 480 368 472.8 368 464V424C368 394.2 347.6 369.1 320 362V308.8C393.5 326.7 448 393 448 472V480C448 497.7 433.7 512 416 512H32C14.33 512 0 497.7 0 480V472C0 393 54.53 326.7 128 308.8V370.3C104.9 377.2 88 398.6 88 424C88 454.9 113.1 480 144 480C174.9 480 200 454.9 200 424C200 398.6 183.1 377.2 160 370.3V304.2C162.7 304.1 165.3 304 168 304H280C282.7 304 285.3 304.1 288 304.2V362zM168 424C168 437.3 157.3 448 144 448C130.7 448 120 437.3 120 424C120 410.7 130.7 400 144 400C157.3 400 168 410.7 168 424z"/><path class="fa-secondary" d="M312 96H320L320 160C320 213 277 256 224 256C170.1 256 128 213 128 160L128 112H176C210.6 112 240.1 93.66 257.9 66.16C269.2 84.1 289.2 96 312 96V96z"/></svg>
